!!!!SEGMENT: pl-lzu--m-15111--001-003_noskowski-zygmunt--spiewnik-dla-dzieci-op-34-3-wiatr.krn
!!!cenid: 18xx:4700
!!!COM: Noskowski, Zygmunt
!!!COM-rismID: pe106604
!!!CDT: 1846/05/02-1909/07/23
!!!CNT: Polish
!!!GTL: Śpiewnik dla dzieci, op. 34
!!!OTL: 3. Wiatr
!!!OMV: 003
!!!PDT: 1890
!!!AGN: Secular; Song; Children
!!!YEC: Copyright 2022 Narodowy Instytut Fryderyka Chopina (https://polishscores.org)
!!!YEM: License CC-BY-4.0 (https://creativecommons.org/licenses/by/4.0)
!!!SMS-siglum: PL-LŹu
!!!SMS-shelfmark: M 15111
!!!SMS-variant:
!!!SMS-altvar:
!!!SMS-shelfwork: 001-003 G
!!!NIFC-rismSourceID: 1001234040
!!!NIFC-rismChildID: 1001234040
!!!NIFC-islandoraID: pl-lzu:5455
!!!URL-pdf-islandora: https://repozytorium.nifc.pl/islandora/object/pl-lzu%3A5455/datastream/PDF/view
!!!URL-scan: https://polish.musicsources.pl/pl/lokalizacje/galeria/druki-muzyczne/23228/10 @EN{Scan on Polish Music Sources Website} @PL{Skany w portalu Dziedzictwo Muzyki Polskiej w otwartym dostępie}
!!!IIIF:
!!!ONB-nifc:
!!!AIN: 1 piano 1 vox
!!!key: c#
!!!OMD: Andantino con moto.
**kern	**kern	**dynam	**kern	**text	**dynam
*part2	*part2	*part2	*part1	*part1	*part1
*staff3	*staff2	*staff2/3	*staff1	*staff1	*staff1
*I"[Piano]	*I"[Piano]	*	*I"[Voice]	*	*
*I'pf	*I'pf	*	*I'V	*	*
*Ipiano	*Ipiano	*	*Ivox	*	*
*ICklav	*ICklav	*	*ICvox	*	*
*IGacmp	*IGacmp	*	*IGsolo	*	*
*clefF4	*clefG2	*	*clefG2	*	*
*k[f#c#g#d#]	*k[f#c#g#d#]	*	*k[f#c#g#d#]	*	*
*c#:	*c#:	*	*c#:	*	*
*M6/8	*M6/8	*	*M6/8	*	*
=1	=1	=1	=1	=1	=1
*	*	*	*	*v :1	*
!	!	!LO:DY:rj	!	!	!LO:DY::rj
4.C#/	8g#L 8e 8G#/	p <	8g#/	Cze-	p <
.	8a 8f# 8A/	.	8a/	-go	.
.	8a#XJ 8f##X 8A#X/	[	8a#X/	ty	[
4.GG#^/	8bL 8g# 8B^/	.	(8b^>/L	ję-	.
.	8a# 8f## 8A#/	>	8a#/J)	.	>
!	!LO:N:n=2:acc=n#	!	!	!	!
.	8anJ 8f#X 8An/	]	8an/	-czysz,	]
=2	=2	=2	=2	=2	=2
4.C#/	8g#L 8e 8G#/	<	8g#/	ty	<
.	8a 8f# 8A/	.	8a/	buj-	.
.	8a#XJ 8f##X 8A#X/	[	8a#X/	-ny	[
4GG#/	8bL 8g# 8B/	>	(8b/L	wie-	>
.	8a# 8f## 8A#/	.	8a#/J)	.	.
!	!LO:N:n=2:acc=n#	!	!	!	!
8BB#X/	8anJ 8f#X 8An/	]	8an,/	-trze	]
=3	=3	=3	=3	=3	=3
4.C#/	8g#L 8e 8G#/	.	8g#/	I	.
.	8a 8f# 8A/	.	8a/	cze-	.
.	8g#J 8e 8G#/	.	8g#/	-go	.
4.GG#/	4.b 4.d# 4.B/	.	4b/	tak	.
.	.	.	8b/	za	.
!!LO:LB:g=original
=4	=4	=4	=4	=4	=4
*	*^	*	*	*	*
4.BB/	4.f# 4.d#/	4B\	.	(4.f#/	wo-	.
.	.	8A\	.	.	.	.
.	.	.	.	8qg#/	.	.
4EE/	4g# 4e 4G#/	4.ryy	.	4g#/)	-dzisz?	.
8r	8r	.	.	8r	.	.
*	*v	*v	*	*	*	*
=5	=5	=5	=5	=5	=5
4.GG#/	8g#L 8d# 8B/	.	8g#/	Cze-	.
.	8d# 8B 8G#/	.	8d#/	-mu	.
.	8d#J 8B 8G#/	.	8d#/	nie	.
4.C#/	8eL 8c# 8G#/	.	8e/	sie-	.
.	8f# 8d#/	.	8f#/	-dzisz	.
.	8g#J 8e 8c#/	.	8g#/	w cha-	.
=6	=6	=6	=6	=6	=6
4.GG#/	8g#L 8d# 8B/	.	(8g#/L	-tecz-	.
.	8d# 8B 8G#/	.	8d#/J)	.	.
.	8d#J 8B 8G#/	.	8d#/	-ce	.
4.C#/	8eL 8c# 8G#/	.	(8e/L	swo-	.
.	8f# 8d#/	.	8f#/J)	.	.
.	8g#J 8e 8c#/	.	8g#,/	-jej,	.
=7	=7	=7	=7	=7	=7
*^	*^	*	*	*	*
4.FF#/	4.ryy	8aL 8c# 8A/	4.ryy	.	8a/	Tyl-	.
.	.	8g# 8c# 8B/	.	.	8g#/	-ko	.
.	.	8f#J 8c# 8A/	.	.	8f#/	po	.
4C#/	4FF#\	4e/	4A\	.	4e/	po-	.
8D#/	8ryy	8d#/	8ryy	.	8d#/	-lu	.
!!LO:PB:g=original
=8	=8	=8	=8	=8	=8	=8	=8
4D#/	[4.GG#\	4f#/	[4.B#X\	.	(4f#/	cho-	.
8E/	.	8e/	.	.	8e/)	.	.
8F#/	8GG#\]	8d#/L	8B#\]	.	4d#/	-dzisz?	.
8r	4ryy	8g# 8G#/	4ryy	.	.	.	.
8r	.	8g#J 8G#/	.	.	8r	.	.
*v	*v	*	*	*	*	*	*
*	*v	*v	*	*	*	*
=9	=9	=9	=9	=9	=9
4.C# 4.CC#/	8g#L 8e 8G#/	<	8g#/	Oj!	<
.	8a 8f# 8A/	.	8a/	te-	.
.	8a#XJ 8f##X 8A#X/	[	8a#X/	-go	[
4FF# 4FFF#^/	8bL 8g# 8B^/	.	(8b^>/L	ję-	.
.	8a# 8f## 8A#/	>	8a#/J)	.	>
!	!LO:N:n=2:acc=n#	!	!	!	!
8AA 8AAA/	8anJ 8f#X 8An/	]	8an/	-czę,	]
=10	=10	=10	=10	=10	=10
4.C# 4.CC#/	8g#L 8e 8G#/	<	8f#/	te-	<
.	8a 8f# 8A/	.	8a/	-go	.
.	8a#XJ 8f##X 8A#X/	[	8a#X/	za-	[
4FF# 4FFF#^/	8bL 8g# 8B^/	.	(8b^>/L	-wo-	.
.	8a# 8f## 8A#/	>	8a#/J)	.	>
!	!LO:N:n=2:acc=n#	!	!	!	!
8AA 8AAA/	8anJ 8f#X 8An/	]	8an/	-dzę,	]
!!LO:LB:g=original
=11	=11	=11	=11	=11	=11
4.C# 4.CC#/	8g#L 8e 8G#/	<	8g#/	Mo-	<
.	8a 8f# 8A/	.	8a/	-je	.
.	8g#J 8e 8G#/	[	8g#/	ty	[
4.GG# 4.GGG#/	4cc# 4e 4c#^/	.	4cc#^\	dro-	.
.	8b 8e 8B/	.	8b\	-gie	.
=12	=12	=12	=12	=12	=12
*	*^	*	*	*	*
4.BB 4.BBB/	4.f# 4.d# 4.F#/	4.ryy	.	(4.f#/	dzie-	.
.	.	.	.	8qg#/	.	.
4EE/	4g#/	8d#L 8G#\	>	4g#/)	-cię,	.
.	.	8f#\	.	.	.	.
8r	8r	8e\J	]	8r	.	.
*	*v	*v	*	*	*	*
=13	=13	=13	=13	=13	=13
!	!	!LO:DY:rj	!	!	!LO:DY:rj
(4GG#/	8g#L 8d# 8B/	p	8g#/	Że	p
.	8d# 8B 8G#/	.	8d#/	nie	.
8FF#/	8d#J 8B 8G#/	.	8d#/	mam	.
8EE/L	8eL 8c# 8G#/	.	8e/	chat-	.
8DD#/	8f# 8d#/	.	8f#,/	-ki,	.
8CC#/J)	8g#J 8e 8c#/	.	8g#/	ro-	.
!!LO:LB:g=original
=14	=14	=14	=14	=14	=14
(4GG#/	8g#L 8d# 8B/	.	(8g#/L	-dzo-	.
.	8d# 8B 8G#/	.	8d#/J)	.	.
8FF#/	8d#J 8B 8G#/	.	8d#/	-nej	.
8EE/L	8eL 8c# 8G#/	.	8e/	chat-	.
8DD#/	8f# 8d#/	.	8f#,/	-ki,	.
8CC#/J)	8g#J 8e 8G#/	.	8g#/	I	.
=15	=15	=15	=15	=15	=15
2.FF# 2.FFF#/	8aL 8f# 8A/	.	(8a/L	tu-	.
.	8g# 8e 8G#/	.	8g#/J)	.	.
.	8f#J 8d# 8F#</	.	8f#/	-łam	.
!	!	!LO:HP:a	!	!	!
.	4e 4A< 4E</	>	4e/	sie	.
.	8d# 8A< 8D#</	]	8d#/	po	.
=16	=16	=16	=16	=16	=16
*^	*	*	*	*	*
4.B#X 4.F#/	4.GG# 4.GGG#\	(4f#/	.	(4f#/	świe-	.
.	.	8d#/)	.	8d#/)	.	.
4.ryy	4GG# 4CC#;<\	4c# 4E<;/	.	4c#;/	-cie.	.
.	8r	8r	.	8r	.	.
*v	*v	*	*	*	*	*
==	==	==	==	==	==
*-	*-	*-	*-	*-	*-
!!!system-decoration: p1{p2}
!!!RDF**kern: > = above
!!!RDF**kern: < = below
!!!ENC: Andrzej Gręziak
!!!END: 2025-03-03
!!!ENC: Marta Lawrence
!!!END: 2025-03-18
